X: 8
T:Little Stack of Barley, The
M:4/4
L:1/8
R:Hornpipe
K:G
gf[|:efed BcdB|AFDF AcBA|GFGA BABd|e2A2  A2gf|!
efed BcdB|AFDF AcBA|GFGA BdAc|1B2G2 G2gf:|2B2G2 G2dc|!
|:BGBd g2fg|agfg edef|g2fg edBd|e2A2 A2fg|!
agfa gedB|AFDF AcBA|GFGA BdAc|1B2G2 G2GA:|2B2G2 G2gf|]!
